ix/colors-square_broken.svg

<svg viewBox="0 0 24 24" fill="none" xmlns="http://www.w3.org/2000/svg" height="1em" width="1em">
  <path d="M13.2 14.3999C13.2 15.4599 12.74 16.4199 12 17.0799C11.36 17.6599 10.52 17.9999 9.59998 17.9999C7.60998 17.9999 6 16.3899 6 14.3999C6 12.7399 7.13002 11.3399 8.65002 10.9299C9.06002 11.9699 9.94999 12.7799 11.05 13.0799C11.35 13.1599 11.67 13.2099 12 13.2099C12.33 13.2099 12.65 13.1699 12.95 13.0799C13.11 13.4799 13.2 13.9299 13.2 14.3999Z" stroke="#292D32" stroke-width="1.5" stroke-linecap="round" stroke-linejoin="round"/>
  <path d="M15.6003 9.6C15.6003 10.07 15.5103 10.52 15.3503 10.93C14.9403 11.97 14.0504 12.78 12.9504 13.08C12.6504 13.16 12.3304 13.21 12.0004 13.21C11.6704 13.21 11.3504 13.17 11.0504 13.08C9.95035 12.78 9.06039 11.98 8.65039 10.93C8.49039 10.52 8.40039 10.07 8.40039 9.6C8.40039 7.61 10.0104 6 12.0004 6C13.9904 6 15.6003 7.61 15.6003 9.6Z" stroke="#292D32" stroke-width="1.5" stroke-linecap="round" stroke-linejoin="round"/>
  <path d="M18 14.3999C18 16.3899 16.39 17.9999 14.4 17.9999C13.48 17.9999 12.64 17.6499 12 17.0799C12.74 16.4299 13.2 15.4699 13.2 14.3999C13.2 13.9299 13.11 13.4799 12.95 13.0699C14.05 12.7699 14.94 11.9699 15.35 10.9199C16.87 11.3399 18 12.7399 18 14.3999Z" stroke="#292D32" stroke-width="1.5" stroke-linecap="round" stroke-linejoin="round"/>
  <path d="M2 13.2V15C2 20 4 22 9 22H15C20 22 22 20 22 15V9C22 4 20 2 15 2H9C4 2 2 4 2 9" stroke="#292D32" stroke-width="1.5" stroke-linecap="round" stroke-linejoin="round"/>
</svg>

<svg viewBox="0 0 24 24" fill="none" xmlns="http://www.w3.org/2000/svg" height="1em" width="1em">
  <path d="M13.2 14.4c0 1.06-.46 2.02-1.2 2.68-.64.58-1.48.92-2.4.92a3.598 3.598 0 0 1-.95-7.07A3.61 3.61 0 0 0 12 13.21c.33 0 .65-.04.95-.13.16.4.25.85.25 1.32Z" stroke="#292D32" stroke-width="1.5" stroke-linecap="round" stroke-linejoin="round"/>
  <path d="M15.6 9.6c0 .47-.09.92-.25 1.33A3.61 3.61 0 0 1 12 13.21c-.33 0-.65-.04-.95-.13A3.587 3.587 0 0 1 8.4 9.6C8.4 7.61 10.01 6 12 6s3.6 1.61 3.6 3.6Z" stroke="#292D32" stroke-width="1.5" stroke-linecap="round" stroke-linejoin="round"/>
  <path d="M18 14.4a3.598 3.598 0 0 1-6 2.68 3.55 3.55 0 0 0 1.2-2.68c0-.47-.09-.92-.25-1.33 1.1-.3 1.99-1.1 2.4-2.15A3.62 3.62 0 0 1 18 14.4Z" stroke="#292D32" stroke-width="1.5" stroke-linecap="round" stroke-linejoin="round"/>
  <path d="M2 13.2V15c0 5 2 7 7 7h6c5 0 7-2 7-7V9c0-5-2-7-7-7H9C4 2 2 4 2 9" stroke="#292D32" stroke-width="1.5" stroke-linecap="round" stroke-linejoin="round"/>
</svg>
